X:1
T:Shickered as He Could Be
M:4/4
L:1/4
K:C
 G,| G,3/2 G,/2 G, G,| C D E2| D/2 D G,/2 B, D| C3| E| E3/2 E/2 E F|\
 G3/2 G/2 G E| E D D D| G,3|E/2-F/2| G3/2 G/2 E3/2 F/2| G3/2 G/2 G3/2 E/2|\
 G,3/2 G,/2 C D| E3| G,| G,3/2 G,/2 G, G,| C D E3/2 E/2| D G, B, D|\
 C3||
